svg/fissures/3.svg

<svg xmlns="http://www.w3.org/2000/svg" width="256" height="256" viewBox="0 0 128 128">
    <path d="M59.75 16.11C61.93 11.19 63.35 5.97 64 .62c.64 5.32 2.07 10.52 4.22 15.43C81 17.31 93.2 23.71 101.19 33.81c5.97 7.3 9.45 16.45 10.35 25.81 4.81 2.13 9.89 3.52 15.07 4.39-5.2.83-10.28 2.3-15.12 4.38-1.41 13.05-8.26 25.41-18.78 33.29-6.98 5.37-15.52 8.37-24.2 9.49-2.21 5.12-3.82 10.49-4.52 16.04-.69-5.54-2.28-10.92-4.5-16.04-13.44-1.48-26.23-8.51-34.1-19.61-4.95-6.77-7.87-14.87-8.88-23.16C11.48 66.24 6.21 64.68.78 64c5.41-.69 10.69-2.18 15.68-4.38 1.12-12.92 7.63-25.29 17.87-33.28 7.2-5.89 16.21-9.29 25.42-10.23m1.8 4.33h4.9c-.86-2.28-1.68-4.58-2.45-6.9-.77 2.32-1.59 4.62-2.45 6.9m-23.67 7.41c-9.83 7.03-16.24 18.27-17.97 30.17 1.49-.8 2.97-1.61 4.45-2.43-.77 5.6-.75 11.28-.01 16.89a619 619 0 0 0-4.34-2.57c1.23 6.87 3.69 13.59 7.8 19.27 6.9 9.93 18.06 16.59 29.99 18.34-.75-1.29-1.51-2.58-2.27-3.87 5.61.75 11.3.75 16.91 0-.75 1.29-1.49 2.58-2.22 3.88 19.12-2.47 35.09-18.59 37.77-37.62a619 619 0 0 0-4.34 2.57c.74-5.61.76-11.29-.01-16.89 1.48.82 2.96 1.63 4.45 2.43-1.23-7.68-4.09-15.14-8.89-21.3-7.06-9.38-17.96-15.51-29.54-17.16.92 1.6 1.86 3.2 2.8 4.79a64 64 0 0 0-16.92 0c.94-1.59 1.88-3.19 2.81-4.79-7.32 1.22-14.51 3.79-20.47 8.29M13.54 64c2.32.77 4.62 1.59 6.9 2.45v-4.9c-2.28.86-4.58 1.67-6.9 2.45m94.02-2.45v4.9c2.28-.86 4.58-1.68 6.9-2.45-2.32-.78-4.62-1.59-6.9-2.45m-46.01 46.01c.86 2.27 1.67 4.57 2.45 6.88.78-2.31 1.59-4.6 2.45-6.88z"/>
    <path d="M52.11 52.11c3.96-4.28 8.73-7.88 11.89-12.85 4.24 6.21 10.32 10.84 15.39 16.34 2.81 2.79 5.4 5.91 8.88 7.93-5.63 4.57-10.38 10.09-15.61 15.09-2.97 2.99-6.11 5.84-8.66 9.22-3.44-4.47-7.74-8.14-11.64-12.19-4.2-4.05-8.04-8.5-12.63-12.12 4.83-2.97 8.24-7.63 12.38-11.42m11.84-10.66c-.14 1.95-.2 3.89-.23 5.84a93 93 0 0 1-3.87 5.38q2.04-1.215 4.23-2.1c1.39.63 2.73 1.35 4.02 2.19-3.34-2.92-4.18-7.08-4.15-11.31m-.91 17.25c1.68 2.27 3.75 4.23 5.96 5.97l1.28-.73c-1.43-2.96-4.29-4.85-6.56-7.11-.17.46-.51 1.4-.68 1.87m-15.87 1.01c-1.38 1.41-2.77 2.82-4.16 4.22 2.85 2.8 5.68 5.61 8.47 8.47 1.87-.64 3.75-1.23 5.65-1.78-2.16-1.79-4.2-3.7-6.19-5.67.44-.88.87-1.76 1.3-2.64-1.82-.59-3.59-1.35-5.07-2.6m12.66.91c2 2.17 3.89 4.48 6.23 6.3.52-.15 1.57-.46 2.09-.62-1.99-2.16-3.87-4.48-6.24-6.25-.52.14-1.56.43-2.08.57m21-.89c-1.48 1.25-3.27 1.97-5.07 2.58.43.88.86 1.75 1.28 2.63-1.06 1.03-2.12 2.06-3.19 3.09 1.25.28 2.32.84 3.21 1.67-1.29-.25-2.53-.64-3.73-1.19-.61.53-1.83 1.57-2.45 2.09 1.81.63 3.6 1.29 5.39 1.98 1.36-1.55 2.87-2.95 4.47-4.25-.81-.28-2.42-.82-3.23-1.1.86.17 2.6.5 3.46.67 1.34-1.33 2.68-2.65 4.03-3.97q-2.1-2.1-4.17-4.2m-22.68 4.19c1.63 2.23 3.71 4.1 5.86 5.82l1.08-.73c-.94-3.1-4.25-4.86-6.35-7.19-.15.53-.44 1.57-.59 2.1M52 72.93c.86.85 1.73 1.7 2.59 2.55 2.23-.93 4.63-1.63 7.04-.83a125 125 0 0 1-3.95-3.3c-1.88.6-3.78 1.1-5.68 1.58m18.35-1.61a141 141 0 0 1-3.99 3.35c2.41-.83 4.81-.12 7.05.81.78-.77 1.57-1.54 2.36-2.31-1.81-.6-3.62-1.2-5.42-1.85m-15.18 4.99q1.35 1.2 2.73 2.4c4.01-.98 8.19-.98 12.2 0l2.73-2.4a43.2 43.2 0 0 0-17.66 0m3.69 4.15c.78.46 2.36 1.39 3.15 1.85 1.32-.01 2.65-.01 3.98-.01.79-.46 2.37-1.38 3.16-1.85-3.42-.45-6.88-.44-10.29.01"/>
    <path d="M51.36 68.79c3.14-1.15-.36 3.33 0 0"/>
</svg>

<svg width="256px" height="256px" viewBox="0 0 128 128" version="1.1" xmlns="http://www.w3.org/2000/svg"><path d=" M 59.75 16.11 C 61.93 11.19 63.35 5.97 64.00 0.62 C 64.64 5.94 66.07 11.14 68.22 16.05 C 81.00 17.31 93.20 23.71 101.19 33.81 C 107.16 41.11 110.64 50.26 111.54 59.62 C 116.35 61.75 121.43 63.14 126.61 64.01 C 121.41 64.84 116.33 66.31 111.49 68.39 C 110.08 81.44 103.23 93.80 92.71 101.68 C 85.73 107.05 77.19 110.05 68.51 111.17 C 66.30 116.29 64.69 121.66 63.99 127.21 C 63.30 121.67 61.71 116.29 59.49 111.17 C 46.05 109.69 33.26 102.66 25.39 91.56 C 20.44 84.79 17.52 76.69 16.51 68.40 C 11.48 66.24 6.21 64.68 0.78 64.00 C 6.19 63.31 11.47 61.82 16.46 59.62 C 17.58 46.70 24.09 34.33 34.33 26.34 C 41.53 20.45 50.54 17.05 59.75 16.11 M 61.55 20.44 C 63.18 20.44 64.81 20.44 66.45 20.44 C 65.59 18.16 64.77 15.86 64.00 13.54 C 63.23 15.86 62.41 18.16 61.55 20.44 M 37.88 27.85 C 28.05 34.88 21.64 46.12 19.91 58.02 C 21.40 57.22 22.88 56.41 24.36 55.59 C 23.59 61.19 23.61 66.87 24.35 72.48 C 22.91 71.62 21.46 70.76 20.01 69.91 C 21.24 76.78 23.70 83.50 27.81 89.18 C 34.71 99.11 45.87 105.77 57.80 107.52 C 57.05 106.23 56.29 104.94 55.53 103.65 C 61.14 104.40 66.83 104.40 72.44 103.65 C 71.69 104.94 70.95 106.23 70.22 107.53 C 89.34 105.06 105.31 88.94 107.99 69.91 C 106.54 70.76 105.09 71.62 103.65 72.48 C 104.39 66.87 104.41 61.19 103.64 55.59 C 105.12 56.41 106.60 57.22 108.09 58.02 C 106.86 50.34 104.00 42.88 99.20 36.72 C 92.14 27.34 81.24 21.21 69.66 19.56 C 70.58 21.16 71.52 22.76 72.46 24.35 C 66.84 23.60 61.16 23.60 55.54 24.35 C 56.48 22.76 57.42 21.16 58.35 19.56 C 51.03 20.78 43.84 23.35 37.88 27.85 M 13.54 64.00 C 15.86 64.77 18.16 65.59 20.44 66.45 C 20.44 64.81 20.44 63.18 20.44 61.55 C 18.16 62.41 15.86 63.22 13.54 64.00 M 107.56 61.55 C 107.56 63.18 107.56 64.82 107.56 66.45 C 109.84 65.59 112.14 64.77 114.46 64.00 C 112.14 63.22 109.84 62.41 107.56 61.55 M 61.55 107.56 C 62.41 109.83 63.22 112.13 64.00 114.44 C 64.78 112.13 65.59 109.84 66.45 107.56 C 64.81 107.56 63.18 107.56 61.55 107.56 Z" /><path d=" M 52.11 52.11 C 56.07 47.83 60.84 44.23 64.00 39.26 C 68.24 45.47 74.32 50.10 79.39 55.60 C 82.20 58.39 84.79 61.51 88.27 63.53 C 82.64 68.10 77.89 73.62 72.66 78.62 C 69.69 81.61 66.55 84.46 64.00 87.84 C 60.56 83.37 56.26 79.70 52.36 75.65 C 48.16 71.60 44.32 67.15 39.73 63.53 C 44.56 60.56 47.97 55.90 52.11 52.11 M 63.95 41.45 C 63.81 43.40 63.75 45.34 63.72 47.29 C 62.50 49.13 61.20 50.92 59.85 52.67 C 61.21 51.86 62.62 51.16 64.08 50.57 C 65.47 51.20 66.81 51.92 68.10 52.76 C 64.76 49.84 63.92 45.68 63.95 41.45 M 63.04 58.70 C 64.72 60.97 66.79 62.93 69.00 64.67 L 70.28 63.94 C 68.85 60.98 65.99 59.09 63.72 56.83 C 63.55 57.29 63.21 58.23 63.04 58.70 M 47.17 59.71 C 45.79 61.12 44.40 62.53 43.01 63.93 C 45.86 66.73 48.69 69.54 51.48 72.40 C 53.35 71.76 55.23 71.17 57.13 70.62 C 54.97 68.83 52.93 66.92 50.94 64.95 C 51.38 64.07 51.81 63.19 52.24 62.31 C 50.42 61.72 48.65 60.96 47.17 59.71 M 59.83 60.62 C 61.83 62.79 63.72 65.10 66.06 66.92 C 66.58 66.77 67.63 66.46 68.15 66.30 C 66.16 64.14 64.28 61.82 61.91 60.05 C 61.39 60.19 60.35 60.48 59.83 60.62 M 80.83 59.73 C 79.35 60.98 77.56 61.70 75.76 62.31 C 76.19 63.19 76.62 64.06 77.04 64.94 C 75.98 65.97 74.92 67.00 73.85 68.03 C 75.10 68.31 76.17 68.87 77.06 69.70 C 75.77 69.45 74.53 69.06 73.33 68.51 C 72.72 69.04 71.50 70.08 70.88 70.60 C 72.69 71.23 74.48 71.89 76.27 72.58 C 77.63 71.03 79.14 69.63 80.74 68.33 C 79.93 68.05 78.32 67.51 77.51 67.23 C 78.37 67.40 80.11 67.73 80.97 67.90 C 82.31 66.57 83.65 65.25 85.00 63.93 C 83.60 62.53 82.21 61.13 80.83 59.73 M 58.15 63.92 C 59.78 66.15 61.86 68.02 64.01 69.74 L 65.09 69.01 C 64.15 65.91 60.84 64.15 58.74 61.82 C 58.59 62.35 58.30 63.39 58.15 63.92 M 52.00 72.93 C 52.86 73.78 53.73 74.63 54.59 75.48 C 56.82 74.55 59.22 73.85 61.63 74.65 C 60.29 73.58 58.97 72.47 57.68 71.35 C 55.80 71.95 53.90 72.45 52.00 72.93 M 70.35 71.32 C 69.04 72.46 67.71 73.58 66.36 74.67 C 68.77 73.84 71.17 74.55 73.41 75.48 C 74.19 74.71 74.98 73.94 75.77 73.17 C 73.96 72.57 72.15 71.97 70.35 71.32 M 55.17 76.31 C 56.07 77.11 56.98 77.91 57.90 78.71 C 61.91 77.73 66.09 77.73 70.10 78.71 C 71.01 77.91 71.92 77.11 72.83 76.31 C 67.04 75.09 60.96 75.10 55.17 76.31 M 58.86 80.46 C 59.64 80.92 61.22 81.85 62.01 82.31 C 63.33 82.30 64.66 82.30 65.99 82.30 C 66.78 81.84 68.36 80.92 69.15 80.45 C 65.73 80.00 62.27 80.01 58.86 80.46 Z" /><path d=" M 51.36 68.79 C 54.50 67.64 51.00 72.12 51.36 68.79 Z" /></svg>
